modules/feathericon/icons/layer.svg

<?xml version="1.0" encoding="UTF-8"?>
<svg width="24px" height="24px" viewBox="0 0 24 24" version="1.1" xmlns="http://www.w3.org/2000/svg" xmlns:xlink="http://www.w3.org/1999/xlink">
    <!-- Generator: sketchtool 52.2 (67145) - http://www.bohemiancoding.com/sketch -->
    <title>layer</title>
    <desc>Created with sketchtool.</desc>
    <g id="production" stroke="none" stroke-width="1" fill="none" fill-rule="evenodd">
        <g id="layer" fill="#000000" fill-rule="nonzero">
            <path d="M6,8 L12,11 L18,8 L12,5 L6,8 Z M12.4888445,3.11627134 L20.4820687,7.19232961 C20.9680351,7.44014296 21.1431257,8.00264173 20.8731443,8.44870577 C20.7818575,8.59953008 20.6463849,8.72387911 20.4820687,8.80767039 L12.4888445,12.8837287 C12.1848309,13.0387571 11.8151691,13.0387571 11.5111555,12.8837287 L3.51793134,8.80767039 C3.03196486,8.55985704 2.85687434,7.99735827 3.12685572,7.55129423 C3.21814251,7.40046992 3.35361512,7.27612089 3.51793134,7.19232961 L11.5111555,3.11627134 C11.8151691,2.96124289 12.1848309,2.96124289 12.4888445,3.11627134 Z M12.4888445,16.8817236 C12.1848309,17.0394255 11.8151691,17.0394255 11.5111555,16.8817236 L3.51793134,12.7353739 C3.03196486,12.483287 2.85687434,11.911088 3.12685572,11.4573316 C3.21814251,11.3039064 3.35361512,11.1774129 3.51793134,11.0921767 C3.75485908,10.9692744 4.03532731,10.9692744 4.27225504,11.0921767 L11.5111555,14.8472337 C11.8151691,15.0049356 12.1848309,15.0049356 12.4888445,14.8472337 L19.727745,11.0921767 C19.9646727,10.9692744 20.2451409,10.9692744 20.4820687,11.0921767 C20.9680351,11.3442636 21.1431257,11.9164626 20.8731443,12.370219 C20.7818575,12.5236442 20.6463849,12.6501377 20.4820687,12.7353739 L12.4888445,16.8817236 Z M12.4888445,20.8817236 C12.1848309,21.0394255 11.8151691,21.0394255 11.5111555,20.8817236 L3.51793134,16.7353739 C3.03196486,16.483287 2.85687434,15.911088 3.12685572,15.4573316 C3.21814251,15.3039064 3.35361512,15.1774129 3.51793134,15.0921767 C3.75485908,14.9692744 4.03532731,14.9692744 4.27225504,15.0921767 L11.5111555,18.8472337 C11.8151691,19.0049356 12.1848309,19.0049356 12.4888445,18.8472337 L19.727745,15.0921767 C19.9646727,14.9692744 20.2451409,14.9692744 20.4820687,15.0921767 C20.9680351,15.3442636 21.1431257,15.9164626 20.8731443,16.370219 C20.7818575,16.5236442 20.6463849,16.6501377 20.4820687,16.7353739 L12.4888445,20.8817236 Z" id="Shape"></path>
        </g>
    </g>
</svg>

<svg width="24" height="24" viewBox="0 0 24 24" xmlns="http://www.w3.org/2000/svg"><path d="M6 8l6 3 6-3-6-3-6 3zm6.489-4.884l7.993 4.076c.486.248.661.81.391 1.257a.97.97 0 0 1-.39.359l-7.994 4.076a1.086 1.086 0 0 1-.978 0L3.518 8.808c-.486-.248-.661-.81-.391-1.257a.97.97 0 0 1 .39-.359l7.994-4.076c.304-.155.674-.155.978 0zm0 13.766a1.07 1.07 0 0 1-.978 0l-7.993-4.147c-.486-.252-.661-.824-.391-1.278a.976.976 0 0 1 .39-.365.818.818 0 0 1 .755 0l7.24 3.755c.303.158.673.158.977 0l7.239-3.755a.818.818 0 0 1 .754 0c.486.252.661.824.391 1.278a.976.976 0 0 1-.39.365l-7.994 4.147zm0 4a1.07 1.07 0 0 1-.978 0l-7.993-4.147c-.486-.252-.661-.824-.391-1.278a.976.976 0 0 1 .39-.365.818.818 0 0 1 .755 0l7.24 3.755c.303.158.673.158.977 0l7.239-3.755a.818.818 0 0 1 .754 0c.486.252.661.824.391 1.278a.976.976 0 0 1-.39.365l-7.994 4.147z" fill="#000" fill-rule="nonzero"/></svg>
